X:169
T: GOTT GRUESS DICH LIEBES MAEDCHEN
N: E0756A
O: Europa, Mitteleuropa, Deutschland
R: Abschieds - Lied
M: 4/4
L: 1/8
K: C
G, | C3CC3E | D3DD2zG | E2z4-z
G, | C3CC3E | D3DD2zG | E2z4-z
G | G3GG2AG | F3FF2z
F | E3EE2FG | D3DD2z
G | E3ED3D | C4z3
G | G3GG2AG | F3FF2z
F | E3EE2FG | D3DD2z
G | E3ED3D | C4z3

